X:1
T:Zwölf Deutsche und Italiänische Romantische Gesänge
T:Poesie von Tieck
T:8. Poesie von Tieck
T:Louise Reichardt
T:Johann Ludwig Tieck
T:Zwölf Deutsche und Italiänische Romantische Gesänge
T:OpenScore (CC0) 
T:OpenScore (CC0) 
C:Louise Reichardt
Z:Johann Ludwig Tieck
Z:OpenScore (CC0)
%%score ( 1 2 ) { 3 | 4 }
L:1/8
Q:1/4=90
M:6/8
K:G
V:1 treble nm="Voice"
V:2 treble 
V:3 treble nm="Piano"
V:4 bass 
V:1
"^Sehr sanft" B3/2 c/ B A3/2 G/ A | A3 G2 G | c2 c B3/2 A/ B | A3- A z D | A A B c A F | G3 D z G | %6
w: 1.~Ru- he Süss- lieb- chen im|Schat- ten der|grü- nen däm- mern- den|Nacht, * Es|säu- selt das Gras auf den|Mat- ten es|
w: 2.~Schweigt ihr ver- steck- ten Ge-|sän- ge und|* die süs- ses- te|Ruh. * Es|lau- schet der Vö- gel Ge-|drän- ge, es|
 e e e g f e | d3 c2 c | B2 B PAG A | G3 z2 z | B3- B c A | (d3- d2 c) | B2 B{d} c PB/A/ PG/F/ | %13
w: fäch- elt und kühlt dich der|Schat- ten und|treu- e Lie- * be|wacht.|Schla- * fe schlaf|ein _ _|lei- ser rau- schet * der *|
w: ruh- en die lau- ten Ge-|sän- ge, schliess|* dein Au- * ge|zu.|Schla- * fe schlaf|ein _ _|in dem däm- mern- * den *|
 (d2 ^d) e{=d}c{B} A | G3 TA3 |1 G3 z2 z :|2 G2 z z dc || B2 B Bc A | A2 G A2 A | B2 G c2 B | %20
w: Hayn, * e- * wig|bin ich|dein.||fort ihr Me- * lo-|die- en rau- sche|nur du stil- ler|
w: Schein, * ich will dein|Wäch- ter||seyn. Mur- melt||||
 (B2 A) z A d | d^c e e2 G | G2 F A>f e/d/ | d^c c c/d/e/f/g/ G/ | G2 F z d d | %25
w: Bach * schö- ne|Lie- * bes- phan- ta-|sie- en spre- * chen *|in * den Me- * * * * lo-|die- en zar- te|
w: |||||
 d>B (3G/"^[  3  ]"A/B/ D2{F} E | D2 z z2 z | c2 c c B A | d3- d e d |{d} c2 c (cB) A | %30
w: Träu- * me * * schwim- men|nach.|durch den flüs- tern- den|Hayn- * schwär- men|gold- ne Bie- * ne-|
w: |||||
 (d2 ^d) e{d} c{B} A | G3{B} A2 G | G2 z z2 z |] %33
w: lein und sum- sen zum|Schlum- mer dich|ein.|
w: |||
V:2
 x6 | x6 | c3/2 c/ x4 | x6 | x6 | x6 | x6 | x6 | B3/2 B/ x x x2 | x6 | x6 | x6 | x6 | x2 x e c x | %14
w: ||||||||||||||
w: ||stört nicht||||||Lieb- chen ||||||
 x6 |1 x6 :|2 x6 || x6 | x6 | x6 | x6 | x6 | x6 | x6 | x6 | x6 | x6 | x6 | x6 | x6 | x6 | x6 | %32
w: ||||||||||||||||||
w: ||||||||||||||||||
 x6 |] %33
w: |
w: |
V:3
 B,DG CDF | B,DG B,DG | CEG B,DG | A,DF A,DF | CDF CDF | B,DG B,DG | CEG CEG | B,DG CDF | %8
 B,DG CDF | B,/D/G/D/B,/D/ D/F/c/F/D/F/ | D/G/B/G/D/G/ D/F/c/F/D/F/ | D/G/B/G/D/G/ D/F/c/F/D/F/ | %12
 D/G/B/G/D/G/ D/F/c/F/D/F/ | D/G/B/G/D/G/ E/A/c/A/E/A/ | D/G/B/G/D/G/ C/D/F/D/C/D/ |1 %15
 B,/D/G/D/B,/D/ B,/D/G/D/B,/D/ :|2 B,/D/G/D/B,/D/ B,/D/G/D/B,/D/ || B,/D/B/D/B,/D/ C/D/F/D/C/D/ | %18
 B,/D/G/D/B,/D/ C/D/F/D/C/D/ | B,/D/G/D/B,/D/ C/D/F/D/B,/D/ | A,/D/F/D/A,/D/ A,/D/F/D/A,/D/ | %21
 A,/^C/G/C/A,/C/ A,/C/G/C/A,/C/ | A,/D/F/D/A,/D/ A,/D/F/D/A,/D/ | A,/^C/G/C/A,/C/ A,/C/G/C/A,/C/ | %24
 A,/D/F/D/A,/D/ A,/D/F/D/A,/D/ | B,/D/G/D/B,/D/ A,/^C/G/^C/A,/C/ | A,/D/F/D/A,/D/ A,/D/F/D/A,/D/ | %27
 =C/D/F/D/C/D/ C/D/F/D/C/D/ | D/G/d/G/D/G/ D/G/d/G/D/G/ | D/F/c/F/D/F/ D/F/c/F/D/F/ | %30
 D/G/d/G/D/G/ E/A/c/A/E/A/ | D/G/B/G/D/G/ C/F/A/F/C/F/ | B,/D/G/D/B,/D/ G2 z |] %33
V:4
 [G,,G,]3 [D,,D,]3 | [G,,G,]3- [G,,G,]3 | [G,,G,]3 [G,,G,]3 | [D,,D,]3- [D,,D,]3 | D,6 | G,6 | %6
 C,6 | D,3- D,3 | D,6 | [G,,G,]3 [D,A,]3 | [G,D]3 [D,A,]3 | [G,B,]3 [D,A,]3 | [G,B,]3 [D,A,]3 | %13
 B,3 C3 | D,6 |1 G,3 G,,3 :|2 G,3 G,,3 || G,3 D,3 | G,3 D,3 | G,3 A,2 G, | D,3 D,3 | %21
 [A,,E,]3 [A,,E,]3 | D,3 D,3 | [A,,E,]3 [A,,E,]3 | D,3 D,3 | G,,3 A,,3 | D,3 D,3 | D,3 D,3 | %28
 B,3 B,3 | A,3 D,3 | B,3 C3 | D,3 D,3 | G,3 G,,2 z |] %33

